X:1
T:Art Thou Watching o’er Me?
T:Art Thou Watching o’er Me?
T:J. Wesley Hughes
T:Harry V. Vogt, 1900
T:Public Domain Courtesy of the Cyber Hymnal™
T:Public Domain Courtesy of the Cyber Hymnal™
C:J. Wesley Hughes
Z:Public Domain
Z:Courtesy of the Cyber Hymnal™
%%score ( 1 2 ) 3 4
L:1/8
Q:1/4=110
M:4/4
K:D
V:1 treble 
V:2 treble 
V:3 treble 
V:4 bass 
V:1
 [DF]2 [EG]2 [^E^G]2 [FA]2 | [GB]4 [FA]4 | [^DB]2 [FA]2 [EG]2 [DF]2 | [EG]6 z2 | %4
w: 1.~Art Thou watch- ing|o’er me|from Thy seat on|high?|
w: 2.~Art Thou watch- ing|o’er me|in the si- lent|night,|
w: 3.~Art Thou watch- ing|o’er me|when I am a-|sleep,|
w: 4.~Art Thou watch- ing|o’er me|when some voice I|hear|
 [CE]2 [DF]2 [EG]2 [FA]2 | [Gc]4 [GB]4 | [Ac]2 [GB]2 [FA]2 [EG]2 | [DF]6 z2 | %8
w: Are the an- gels|with Thee|far up in the|sky?|
w: When I say my|prayer for|Thee to guide me|right?|
w: And my spir- it’s|wan- dering|thro’ the dream- y|deep?|
w: Sweet- ly calls to|wake me|from my dream- land|sphere?|
 [DF]2 [EG]2 [^E^G]2 [FA]2 | [Fd]4 [Ec]4 | [Ec]2 [DB]2 [C^A]2 [DB]2 |!f! [^Ge]8 | %12
w: From Thy home in|Hea- ven|watch- ing where I|go,|
w: Do the an- gels|love me—|list- en what I|say—|
w: Art Thou real- ly|with me|just as it does|seem?|
w: Art Thou there to|greet me|in the morn- ing|bright|
 [Bd]2 [Ac]2 [Ac]2 [GB]2 | [GB]2 [FA]2 [FA]2 [EG]2 | F6 (z2 E2) | !fermata!D6 z2 || %16
w: Light- ing up the|dan- gers of my|path *||
w: Ask- ing Thee for|mer- cy when I|kneel *||
w: Do I see the|an- gels when I|sleep *||
w: When I pray and|ask Thee for Thy|guid- *||
"^Refrain"[Q:1/4=105] [DF]>[EG] | [GB]2 [FA]4 [Fd]>[Ac] | [Ac]2 [GB]4 E>[^DF] | %19
w: be- low?|Yes, I’m watch- ing—|al- ways watch- ing|
w: to pray?|Yes, they love thee,|al- ways love thee,|
w: and dream?|Yes, I’m with thee—|al- ways with thee,|
w: ing light?|Yes, I’ll greet thee—|al- ways greet thee|
 [EA]2 [EG]2 [DF]2 [GB]2 | [FA]6 [DF]>[EG] | [GB]2 [FA]4 [Fd]>[Ac] | [Ac]2 [GB]4 E>[^DF] | %23
w: O’er My loved ones|there be- low,|Ne- ver wea- rying,|ev- er cheer- ing,|
w: Ev- er with thee|to re- joice,|Ne- ver tir- ing,|ev- er sing- ing,|
w: Not a mo- ment|from thy side;|Ne- ver doubt- ing,|ev- er lov- ing—|
w: In the fresh and|ear- ly morn—|Ne- ver ab- sent—|ev- er pre- sent;|
 [EA]2 [EG]2 [CF]2 [A,E]2 | [A,D]6 z2 |] %25
w: All My child- ren|where|
w: In their hap- py|sweet-|
w: Al- ways in My|trust|
w: Ne- ver from My|side|
V:2
 x8 | x8 | x8 | x8 | x8 | x8 | x8 | x8 | x8 | x8 | x8 | x8 | x8 | x8 | D4 C4 x2 | D6 x2 || x2 | %17
 x8 | x6 E3/2 x/ | x8 | x8 | x8 | x6 E3/2 x/ | x8 | x8 |] %25
V:3
 [DF]2 [EG]2 [^E^G]2 [FA]2 | z2 [B,DG]2 z2 [A,DF]2 | z2 [B,^DF]2 z2 [B,DF]2 | %3
 z2 ([B,EG]2 [B,EG]2 [B,EG]2) | [CE]2 [DF]2 [EG]2 [FA]2 | z2 [A,CG]2 z2 [A,CG]2 | %6
 z2 [A,CG]2 z2 [A,CG]2 | z2 ([A,DF]2 [A,DF]2 [A,DF]2) | [DF]2 [EG]2 [^E^G]2 [FA]2 | %9
 z2 [DFB]2 z2 [CF^A]2 | z2 [DEB]2 [DEB]2 [DEB]2 | z2 ([DE^G]2 [DEG]2 [DEG]2) | %12
 z2 [A,CG]2 z2 [A,CG]2 | z2 [A,DF]2 [=CDA]2 [B,EG]2 | z2 [A,DF]2 z2 [G,CE]2 x2 | %15
 z2 ([F,A,D]2 !fermata![F,A,D]2) z2 || x2 | x8 | x8 | x8 | x8 | x8 | x8 | x8 | x8 |] %25
V:4
 [D,,D,]6 z2 | [D,,D,]4 [D,,D,]4 | A,4 B,,4 | [E,,E,]6 z2 | A,,8 | [E,,E,]4 [E,,E,]4 | A,,4 A,,4 | %7
 [D,,D,]6 z2 | [D,,D,]6 z2 | B,,4 [F,,F,]4 | [^G,,^G,]8 | [E,,E,]8 | A,,4 A,,4 | %13
 [D,,D,]4 F,,2 G,,2 | A,,4 A,,4 x2 | !fermata![D,,D,]6 z2 || [D,A,]>[D,A,] | %17
 [D,D]2 [D,D]4 [D,A,]>[F,D] | [G,D]2 [G,D]4 [G,B,]>[F,B,] | [E,B,]2 [C,A,]2 [D,A,]2 [D,D]2 | %20
 [D,D]6 [D,A,]>[D,A,] | [D,D]2 [D,D]4 [D,A,]>[F,D] | [G,D]2 [G,D]4 [G,B,]>[F,B,] | %23
 [E,B,]2 [G,,B,]2 [A,,A,]2 [A,,G,]2 | [D,F,]6 z2 |] %25

